src/actions/16/view-task-child.svg

<svg version="1.1" viewBox="0 0 16 16" xmlns="http://www.w3.org/2000/svg">
 <defs>
  <style id="current-color-scheme" type="text/css">.ColorScheme-Text {
        color:#363636;
      }</style>
 </defs>
 <path d="m2 1c-1.108 0-2 0.892-2 2v10c0 1.108 0.892 2 2 2h4.1055c-0.062668-0.24218-0.10547-0.4916-0.10547-0.75391v-0.24609h-4c-0.554 0-1-0.446-1-1v-8c0-0.554 0.446-1 1-1h11c0.554 0 1 0.446 1 1v2h1v-4c0-1.108-0.892-2-2-2h-11z" class="ColorScheme-Text" fill="currentColor"/>
 <path d="m11.967 8a4.5 4.5 0 0 1 0.033203 0.5 4.5 4.5 0 0 1-0.26367 1.5h2.2637c0.554 0 1 0.446 1 1v3c0 0.554-0.446 1-1 1h-5c-0.554 0-1-0.446-1-1v-1.0332a4.5 4.5 0 0 1-0.5 0.033203 4.5 4.5 0 0 1-0.5-0.03125v1.0312c0 1.108 0.892 2 2 2h5c1.108 0 2-0.892 2-2v-4c0-1.108-0.892-2-2-2h-2.0332z" class="ColorScheme-Text" fill="currentColor"/>
 <path class="ColorScheme-Text" d="m7.4945 5a3.5 3.5 0 0 0-3.5 3.5 3.5 3.5 0 0 0 3.5 3.5 3.5 3.5 0 0 0 3.5-3.5 3.5 3.5 0 0 0-3.5-3.5zm1.9902 1.3789 0.70703 0.70703-3.5352 3.5352-2.1211-2.1211 0.70703-0.70703 1.4141 1.4141 2.8281-2.8281z" fill="currentColor"/>
</svg>

<svg xmlns="http://www.w3.org/2000/svg" viewBox="0 0 16 16">
    <defs>
        <style id="current-color-scheme" type="text/css">
            .ColorScheme-Text{color:#050505;opacity:.7}
        </style>
    </defs>
    <path fill="currentColor" d="M2 1C.892 1 0 1.892 0 3v10c0 1.108.892 2 2 2h4.106A2.99 2.99 0 0 1 6 14.246V14H2c-.554 0-1-.446-1-1V5c0-.554.446-1 1-1h11c.554 0 1 .446 1 1v2h1V3c0-1.108-.892-2-2-2H2z" class="ColorScheme-Text"/>
    <path fill="currentColor" d="M11.967 8a4.5 4.5 0 0 1 .033.5 4.5 4.5 0 0 1-.263 1.5H14c.554 0 1 .446 1 1v3c0 .554-.446 1-1 1H9c-.554 0-1-.446-1-1v-1.033a4.5 4.5 0 0 1-.5.033 4.5 4.5 0 0 1-.5-.031V14c0 1.108.892 2 2 2h5c1.108 0 2-.892 2-2v-4c0-1.108-.892-2-2-2h-2.033z" class="ColorScheme-Text"/>
    <path fill="currentColor" d="M7.495 5a3.5 3.5 0 0 0-3.5 3.5 3.5 3.5 0 0 0 3.5 3.5 3.5 3.5 0 0 0 3.5-3.5 3.5 3.5 0 0 0-3.5-3.5zm1.99 1.379.707.707-3.535 3.535L4.535 8.5l.707-.707 1.415 1.414L9.485 6.38z" class="ColorScheme-Text"/>
</svg>
